X: 4056
T: CRAIL
R: Strathspey.
%R: strathspey
B: James Kerr "Merry Melodies" v.4 p.09 #56
Z: 2016 John Chambers <jc:trillian.mit.edu>
M: C
L: 1/8
K: D
|:\
D2 F>G A<F E>F | D<d d>e d>cB>A |\
B<B d>B A<A d>A | G>F E>D C<E E<F :|
|:\
D<d d>e f>ed>A | B<B b>a g>fe>d |\
B<B d>B A<A d>f | g>fe>d c<e e<f |]

%%sep 1 1 500
%%sep 1 1 500

